X:112
T: Das Bauerntoechterlein
N: Q0051D
O: Mitteleuropa, Deutschland / Frankreich, Lothringen, Saargemuend,
R: Ballade, Hochzeit, Tod
M: 3/4
L: 1/8
K: G
D2 | G3FG2 | A2B2A2 | G3FG2 | D4
G2 | D3ED2 | B2A2G2 | A2B2A2 | G4

@@@ Tune index: 848
